icons/aws-cloudsearch.svg

<svg xmlns="http://www.w3.org/2000/svg" viewBox="0 0 256 309.76">
  <path fill="#876929" d="M127.25 57.75 24.805 92.011 24 189.875l20.877-4.638V95.393L128 73.64l83.123 21.753v89.844l21.502 4.638.038-98.839L127.25 57.75"/>
  <path fill="#fad791" d="m230.316 186.738-19.193-1.501L128 196.543l-83.123-11.306-19.193 1.501 102.675 20.486 101.957-20.486"/>
  <path fill="#876929" d="M129.434 205.7 128 202.687l-102.311-15.95V92.501L128 61.806l1.009-1.418V1.926L128 0 0 64v154.941l89.714 31.93v39.62l38.372 19.269 1.169-3.316.179-100.744"/>
  <path fill="#d9a741" d="M128 0v61.806l102.311 30.695v94.236L128 202.687v13.625l-.086.017v93.431l38.372-19.269v-39.62L256 218.941V64L128 0"/>
</svg>

<?xml version="1.0" encoding="UTF-8" standalone="no"?>
<svg width="256px" height="310px" viewBox="0 0 256 310" version="1.1" xmlns="http://www.w3.org/2000/svg" xmlns:xlink="http://www.w3.org/1999/xlink" preserveAspectRatio="xMidYMid">
	<g>
		<path d="M127.25,57.75 L24.805,92.011 L24,189.875 L44.877,185.237 L44.877,95.393 L128,73.64 L211.123,95.393 L211.123,185.237 L232.625,189.875 L232.663,91.036 L127.25,57.75" fill="#876929"></path>
		<path d="M230.316,186.738 L211.123,185.237 L128,196.543 L44.877,185.237 L25.684,186.738 L128.359,207.224 L230.316,186.738" fill="#FAD791"></path>
		<path d="M129.434,205.7 L128,202.687 L25.689,186.737 L25.689,92.501 L128,61.806 L129.009,60.388 L129.009,1.926 L128,0 L0,64 L0,218.941 L89.714,250.871 L89.714,290.491 L128.086,309.76 L129.255,306.444 L129.434,205.7" fill="#876929"></path>
		<path d="M128,0 L128,61.806 L230.311,92.501 L230.311,186.737 L128,202.687 L128,216.312 L127.914,216.329 L127.914,309.76 L166.286,290.491 L166.286,250.871 L256,218.941 L256,64 L128,0" fill="#D9A741"></path>
	</g>
</svg>
